X:5422
T:Rakes of Kirby
O:england
M:2/2
L:1/8
S:Armitt MS
K:A major
cd|efec ABcA|fgfd BcdB|cAce fedc|d2cdB2cd|efec ABcA|fgfd BcdB|cAce aecA|
EAGBA2:||:A2cA eAcA|EAcA dcBA|cAce fedc|d2cdB2E2|A2cA cecA|B2dB d/2f/2d/
2B|ceae fdcA|EAGBA2:||


